packages/foundations/assets/icons/functional/images/editing/bin_14.svg

<svg width="14" height="14" viewBox="0 0 14 14" fill="none" xmlns="http://www.w3.org/2000/svg">
<g clip-path="url(#clip0_2204_2788)">
<path fill-rule="evenodd" clip-rule="evenodd" d="M1.4 5.59999C1.4 5.20624 1.70625 4.89999 2.1 4.89999H2.8C3.56563 4.89999 4.2 5.59999 4.2 6.29999V11.2H9.82188V6.29999C9.82188 5.59999 10.4563 4.89999 11.2 4.89999H11.9C12.2938 4.89999 12.6 5.20624 12.6 5.59999C12.6 5.99374 12.2938 6.29999 11.9 6.29999H11.2219V11.3312C11.2219 12.0753 10.5451 12.6 9.82188 12.6H4.2C3.45497 12.6 2.8 12.0753 2.8 11.3312V6.29999H2.1C1.70625 6.29999 1.4 5.99374 1.4 5.59999ZM1.4 3.49999C1.4 3.10624 1.70625 2.79999 2.1 2.79999H4.9V2.09999C4.9 1.70624 5.20625 1.39999 5.6 1.39999H8.4C8.575 1.39999 8.77188 1.46562 8.90313 1.59687C9.03438 1.72812 9.1 1.90312 9.1 2.09999V2.79999H11.9C12.2938 2.79999 12.6 3.10624 12.6 3.49999C12.6 3.89374 12.2938 4.19999 11.9 4.19999H2.1C1.70625 4.19999 1.4 3.89374 1.4 3.49999ZM4.9 9.79999V6.29999C4.9 5.90624 5.20625 5.59999 5.6 5.59999C5.99375 5.59999 6.3 5.90624 6.3 6.29999V9.79999C6.3 10.1719 5.99375 10.5 5.6 10.5C5.425 10.5 5.22813 10.4125 5.09688 10.2812C4.96563 10.15 4.9 9.97499 4.9 9.79999ZM7.7 9.79999V6.29999C7.7 5.90624 8.00625 5.59999 8.4 5.59999C8.79375 5.59999 9.1 5.90624 9.1 6.29999V9.79999C9.1 10.1719 8.79375 10.5 8.4 10.5C8.225 10.5 8.02813 10.4125 7.89688 10.2812C7.76563 10.15 7.7 9.97499 7.7 9.79999Z" fill="#1A1C1F"/>
</g>
<defs>
<clipPath id="clip0_2204_2788">
<rect width="14" height="14" fill="white"/>
</clipPath>
</defs>
</svg>

<svg xmlns="http://www.w3.org/2000/svg" width="14" height="14" fill="none"><g clip-path="url(#a)"><path fill="#1A1C1F" fill-rule="evenodd" d="M1.4 5.6c0-.394.306-.7.7-.7h.7c.766 0 1.4.7 1.4 1.4v4.9h5.622V6.3c0-.7.634-1.4 1.378-1.4h.7c.394 0 .7.306.7.7s-.306.7-.7.7h-.678v5.031c0 .744-.677 1.269-1.4 1.269H4.2c-.745 0-1.4-.525-1.4-1.269V6.3h-.7a.69.69 0 0 1-.7-.7m0-2.1c0-.394.306-.7.7-.7h2.8v-.7c0-.394.306-.7.7-.7h2.8a.73.73 0 0 1 .503.197.7.7 0 0 1 .197.503v.7h2.8c.394 0 .7.306.7.7s-.306.7-.7.7H2.1a.69.69 0 0 1-.7-.7m3.5 6.3V6.3c0-.394.306-.7.7-.7s.7.306.7.7v3.5c0 .372-.306.7-.7.7a.75.75 0 0 1-.503-.219A.68.68 0 0 1 4.9 9.8m2.8 0V6.3c0-.394.306-.7.7-.7s.7.306.7.7v3.5c0 .372-.306.7-.7.7a.75.75 0 0 1-.503-.219A.68.68 0 0 1 7.7 9.8" clip-rule="evenodd"/></g><defs><clipPath id="a"><path fill="#fff" d="M0 0h14v14H0z"/></clipPath></defs></svg>
